components/Common/Svg/svgs/titledKotlin2.svg

<svg
  width="137"
  height="106"
  viewBox="0 0 137 106"
  fill="none"
  xmlns="http://www.w3.org/2000/svg"
>
  <path
    d="M52.5806 96L47.4146 90.276V96H45.7766V83.454H47.4146V89.268L52.5986 83.454H54.6686L48.9806 89.736L54.7226 96H52.5806ZM60.854 96.162C59.93 96.162 59.09 95.952 58.334 95.532C57.59 95.112 57.002 94.518 56.57 93.75C56.15 92.97 55.94 92.07 55.94 91.05C55.94 90.042 56.156 89.154 56.588 88.386C57.032 87.606 57.632 87.012 58.388 86.604C59.144 86.184 59.99 85.974 60.926 85.974C61.862 85.974 62.708 86.184 63.464 86.604C64.22 87.012 64.814 87.6 65.246 88.368C65.69 89.136 65.912 90.03 65.912 91.05C65.912 92.07 65.684 92.97 65.228 93.75C64.784 94.518 64.178 95.112 63.41 95.532C62.642 95.952 61.79 96.162 60.854 96.162ZM60.854 94.722C61.442 94.722 61.994 94.584 62.51 94.308C63.026 94.032 63.44 93.618 63.752 93.066C64.076 92.514 64.238 91.842 64.238 91.05C64.238 90.258 64.082 89.586 63.77 89.034C63.458 88.482 63.05 88.074 62.546 87.81C62.042 87.534 61.496 87.396 60.908 87.396C60.308 87.396 59.756 87.534 59.252 87.81C58.76 88.074 58.364 88.482 58.064 89.034C57.764 89.586 57.614 90.258 57.614 91.05C57.614 91.854 57.758 92.532 58.046 93.084C58.346 93.636 58.742 94.05 59.234 94.326C59.726 94.59 60.266 94.722 60.854 94.722ZM70.0637 87.486V93.3C70.0637 93.78 70.1657 94.122 70.3697 94.326C70.5737 94.518 70.9277 94.614 71.4317 94.614H72.6377V96H71.1617C70.2497 96 69.5657 95.79 69.1097 95.37C68.6537 94.95 68.4257 94.26 68.4257 93.3V87.486H67.1477V86.136H68.4257V83.652H70.0637V86.136H72.6377V87.486H70.0637ZM76.2603 82.68V96H74.6223V82.68H76.2603ZM79.898 84.534C79.586 84.534 79.322 84.426 79.106 84.21C78.89 83.994 78.782 83.73 78.782 83.418C78.782 83.106 78.89 82.842 79.106 82.626C79.322 82.41 79.586 82.302 79.898 82.302C80.198 82.302 80.45 82.41 80.654 82.626C80.87 82.842 80.978 83.106 80.978 83.418C80.978 83.73 80.87 83.994 80.654 84.21C80.45 84.426 80.198 84.534 79.898 84.534ZM80.69 86.136V96H79.052V86.136H80.69ZM88.2877 85.956C89.4877 85.956 90.4597 86.322 91.2037 87.054C91.9477 87.774 92.3197 88.818 92.3197 90.186V96H90.6997V90.42C90.6997 89.436 90.4537 88.686 89.9617 88.17C89.4697 87.642 88.7977 87.378 87.9457 87.378C87.0817 87.378 86.3917 87.648 85.8757 88.188C85.3717 88.728 85.1197 89.514 85.1197 90.546V96H83.4817V86.136H85.1197V87.54C85.4437 87.036 85.8817 86.646 86.4337 86.37C86.9977 86.094 87.6157 85.956 88.2877 85.956Z"
    fill="#A0A0A0"
  ></path>
  <path
    d="M38.0117 15.2131H44.3304L44.3304 27.585L55.983 15.2131H63.6147L51.9212 27.2211L64.148 43.515L56.5575 43.515L47.6539 31.4667L44.3304 34.8628L44.3303 43.515H38.0117L38.0117 15.2122V15.2131Z"
    fill="#6A6A6A"
  ></path>
  <path
    d="M60.7891 32.8005V32.7199C60.7891 26.4936 65.877 21.4394 72.7289 21.4394C79.54 21.4394 84.5867 26.4124 84.5867 32.6388V32.7198C84.5867 38.9461 79.4989 43.9998 72.6469 43.9998C65.8358 43.9998 60.7891 39.0267 60.7891 32.8003V32.8005ZM78.4322 32.8005V32.7199C78.4322 29.5258 76.0935 26.7361 72.6469 26.7361C69.0773 26.7361 66.9436 29.4449 66.9436 32.6391V32.72C66.9436 35.9139 69.2823 38.7036 72.7289 38.7036C76.2985 38.7036 78.4322 35.9948 78.4322 32.8006V32.8005Z"
    fill="#6A6A6A"
  ></path>
  <path
    d="M86.3095 37.3695V27.1H83.6836V21.8439H86.3095L86.3096 16.3047H92.5462V21.8439H97.7158V27.1H92.5462V36.3589C92.5462 37.7738 93.1615 38.4614 94.5566 38.4614C95.7055 38.4614 96.7313 38.1783 97.6337 37.6929V42.6256C96.3208 43.3938 94.8027 43.879 92.7102 43.879C88.8945 43.879 86.3095 42.3829 86.3095 37.3695L86.3095 37.3695Z"
    fill="#6A6A6A"
  ></path>
  <path
    d="M99.5078 14H105.744L105.744 43.5139H99.5078L99.5078 14H99.5078Z"
    fill="#6A6A6A"
  ></path>
  <path
    d="M107.996 14H114.561V19.4583H107.996L107.996 14H107.996ZM108.16 21.8436H114.397L114.397 43.5147L108.16 43.5147L108.16 21.8436V21.8436Z"
    fill="#6A6A6A"
  ></path>
  <path
    d="M116.77 21.8436H123.006V24.9164C124.442 23.097 126.289 21.4395 129.448 21.4395C134.167 21.4395 136.916 24.5122 136.916 29.4853V43.5147L130.679 43.5147V31.4258C130.679 28.515 129.284 27.0189 126.904 27.0189C124.524 27.0189 123.006 28.515 123.006 31.4258L123.006 43.5147H116.77L116.77 21.8436L116.77 21.8436Z"
    fill="#6A6A6A"
  ></path>
  <path
    d="M14.4644 15.1988L0.046875 30.1395V43.4945L14.4438 29.2842L28.7643 15.1988H14.4644Z"
    fill="url(#paint0_linear_4433_7614)"
  ></path>
  <path
    d="M0.046875 43.4945L14.4438 29.2842L28.7642 43.4945H0.046875Z"
    fill="url(#paint1_linear_4433_7614)"
  ></path>
  <path
    d="M0.046875 15.1988H14.4647L0.046875 30.1394V15.1988Z"
    fill="url(#paint2_linear_4433_7614)"
  ></path>
  <defs>
    <linearGradient
      id="paint0_linear_4433_7614"
      x1="-3.20777"
      y1="39.6581"
      x2="19.4789"
      y2="16.635"
      gradientUnits="userSpaceOnUse"
    >
      <stop stop-color="#3E3E3E"></stop>
      <stop offset="1" stop-color="#949494"></stop>
    </linearGradient>
    <linearGradient
      id="paint1_linear_4433_7614"
      x1="10.1751"
      y1="47.6528"
      x2="22.1266"
      y2="35.5231"
      gradientUnits="userSpaceOnUse"
    >
      <stop stop-color="#575757"></stop>
      <stop offset="1" stop-color="#9D9D9D"></stop>
    </linearGradient>
    <linearGradient
      id="paint2_linear_4433_7614"
      x1="-1.27022"
      y1="23.9669"
      x2="9.17604"
      y2="13.3659"
      gradientUnits="userSpaceOnUse"
    >
      <stop stop-color="#808080"></stop>
      <stop offset="1" stop-color="#727272"></stop>
    </linearGradient>
  </defs>
</svg>

<svg width="137" height="106" viewBox="0 0 137 106" fill="none" xmlns="http://www.w3.org/2000/svg"><path d="m52.58 96-5.165-5.724V96h-1.638V83.454h1.638v5.814l5.184-5.814h2.07l-5.688 6.282L54.723 96H52.58Zm8.274.162c-.924 0-1.764-.21-2.52-.63a4.58 4.58 0 0 1-1.764-1.782c-.42-.78-.63-1.68-.63-2.7 0-1.008.216-1.896.648-2.664a4.51 4.51 0 0 1 1.8-1.782c.756-.42 1.602-.63 2.538-.63.936 0 1.782.21 2.538.63.756.408 1.35.996 1.782 1.764.444.768.666 1.662.666 2.682s-.228 1.92-.684 2.7a4.634 4.634 0 0 1-1.818 1.782c-.768.42-1.62.63-2.556.63Zm0-1.44c.588 0 1.14-.138 1.656-.414.516-.276.93-.69 1.242-1.242.324-.552.486-1.224.486-2.016s-.156-1.464-.468-2.016c-.312-.552-.72-.96-1.224-1.224a3.356 3.356 0 0 0-1.638-.414c-.6 0-1.152.138-1.656.414-.492.264-.888.672-1.188 1.224-.3.552-.45 1.224-.45 2.016 0 .804.144 1.482.432 2.034.3.552.696.966 1.188 1.242a3.372 3.372 0 0 0 1.62.396Zm9.21-7.236V93.3c0 .48.102.822.306 1.026.204.192.558.288 1.062.288h1.206V96h-1.476c-.912 0-1.596-.21-2.052-.63-.456-.42-.684-1.11-.684-2.07v-5.814h-1.278v-1.35h1.278v-2.484h1.638v2.484h2.574v1.35h-2.574Zm6.196-4.806V96h-1.638V82.68h1.638Zm3.638 1.854c-.312 0-.576-.108-.792-.324a1.077 1.077 0 0 1-.324-.792c0-.312.108-.576.324-.792.216-.216.48-.324.792-.324.3 0 .552.108.756.324.216.216.324.48.324.792 0 .312-.108.576-.324.792a.998.998 0 0 1-.756.324Zm.792 1.602V96h-1.638v-9.864h1.638Zm7.598-.18c1.2 0 2.172.366 2.916 1.098.744.72 1.116 1.764 1.116 3.132V96H90.7v-5.58c0-.984-.246-1.734-.738-2.25-.492-.528-1.164-.792-2.016-.792-.864 0-1.554.27-2.07.81-.504.54-.756 1.326-.756 2.358V96h-1.638v-9.864h1.638v1.404a3.266 3.266 0 0 1 1.314-1.17 4.16 4.16 0 0 1 1.854-.414Z" fill="#A0A0A0"/><path d="M38.012 15.213h6.318v12.372l11.653-12.372h7.632L51.92 27.221l12.227 16.294h-7.59l-8.904-12.048-3.324 3.396v8.652h-6.318V15.212v.001Z" fill="#6A6A6A"/><path d="M60.79 32.8v-.08c0-6.226 5.087-11.28 11.939-11.28 6.811 0 11.858 4.972 11.858 11.199v.08c0 6.227-5.088 11.28-11.94 11.28-6.811 0-11.858-4.972-11.858-11.199Zm17.642 0v-.08c0-3.194-2.338-5.984-5.785-5.984-3.57 0-5.703 2.709-5.703 5.903v.081c0 3.194 2.338 5.984 5.785 5.984 3.57 0 5.703-2.71 5.703-5.903Z" fill="#6A6A6A"/><path d="M86.31 37.37V27.1h-2.626v-5.256h2.626v-5.54h6.236v5.54h5.17V27.1h-5.17v9.259c0 1.415.615 2.102 2.01 2.102a6.413 6.413 0 0 0 3.078-.768v4.933c-1.313.768-2.831 1.253-4.924 1.253-3.816 0-6.4-1.496-6.4-6.51ZM99.508 14h6.236v29.514h-6.236V14ZM107.996 14h6.565v5.458h-6.565V14Zm.164 7.844h6.237v21.67h-6.237v-21.67ZM116.77 21.844h6.236v3.072c1.436-1.819 3.283-3.477 6.442-3.477 4.719 0 7.468 3.073 7.468 8.046v14.03h-6.237v-12.09c0-2.91-1.395-4.406-3.775-4.406s-3.898 1.496-3.898 4.407v12.089h-6.236V21.844Z" fill="#6A6A6A"/><path d="M14.464 15.199.047 30.139v13.356l14.397-14.21 14.32-14.086h-14.3Z" fill="url(#a)"/><path d="m.047 43.495 14.397-14.21 14.32 14.21H.047Z" fill="url(#b)"/><path d="M.047 15.199h14.418L.047 30.139V15.2Z" fill="url(#c)"/><defs><linearGradient id="a" x1="-3.208" y1="39.658" x2="19.479" y2="16.635" gradientUnits="userSpaceOnUse"><stop stop-color="#3E3E3E"/><stop offset="1" stop-color="#949494"/></linearGradient><linearGradient id="b" x1="10.175" y1="47.653" x2="22.127" y2="35.523" gradientUnits="userSpaceOnUse"><stop stop-color="#575757"/><stop offset="1" stop-color="#9D9D9D"/></linearGradient><linearGradient id="c" x1="-1.27" y1="23.967" x2="9.176" y2="13.366" gradientUnits="userSpaceOnUse"><stop stop-color="gray"/><stop offset="1" stop-color="#727272"/></linearGradient></defs></svg>
